X:10
T:Rigs of Marlow
R:hornpipe
H:Used as tune for Red Stags Morris dance "Blake's Seven"
C:Traditional.
M:4/4
L:1/8
K:G
G>A | B2 B2 B2 ((3dcB) | A2 A2 A2 ((3cBA) | B2 B2 B>cd>g | e>cA>F G2 G>A |
B2 B2 B2 ((3dcB) | A2 A2 A2 ((3cBA) | B2 B2 B>cd>g | e>cA>F G4 |]
g>ed>c B>c d2 | g>ed>c ((3Bcd) A2 | g>ed>c B>cd>c | B>GA>F G2 G2 |
g>ed>c B>c d2 | g>ed>c ((3Bcd) A2 | g>ed>c B>cd>c | B>GA>F G2 |]
